Icons/com_android_music.svg

<svg viewBox="0 0 48 48" xmlns:xlink="http://www.w3.org/1999/xlink">
 <defs>
  <linearGradient id="0">
   <stop stop-opacity="0"/>
   <stop offset="1"/>
  </linearGradient>
  <linearGradient xlink:href="#0" id="1" gradientUnits="userSpaceOnUse" gradientTransform="translate(4e-7,-48)" y1="47" x2="0" y2="1"/>
  <clipPath id="2">
   <g transform="translate(0,-1004.3622)">
    <rect rx="4" y="1005.36" x="1" height="46" width="46" fill="#1890d0"/>
   </g>
  </clipPath>
  <clipPath id="3">
   <g transform="translate(0,-1004.3622)">
    <rect rx="4" y="1005.36" x="1" height="46" width="46" fill="#1890d0"/>
   </g>
  </clipPath>
 </defs>
 <g>
  <g transform="translate(0,-1004.3622)">
   <path d="m 5,1006.3622 c -2.216,0 -4,1.784 -4,4 l 0,37.25 c 0,2.216 1.784,4 4,4 l 38,0 c 2.216,0 4,-1.784 4,-4 l 0,-37.25 c 0,-2.216 -1.784,-4 -4,-4 l -38,0 z m -4,41.5 0,0.5 c 0,2.216 1.784,4 4,4 l 38,0 c 2.216,0 4,-1.784 4,-4 l 0,-0.5 c 0,2.216 -1.784,4 -4,4 l -38,0 c -2.216,0 -4,-1.784 -4,-4 z" opacity="0.02"/>
   <path d="m 1,1047.6122 0,0.25 c 0,2.216 1.784,4 4,4 l 38,0 c 2.216,0 4,-1.784 4,-4 l 0,-0.25 c 0,2.216 -1.784,4 -4,4 l -38,0 c -2.216,0 -4,-1.784 -4,-4 z" opacity="0.05"/>
   <rect width="46" height="46" x="1" y="1005.61" rx="4" opacity="0.1"/>
  </g>
 </g>
 <g>
  <g transform="translate(0,-1004.3622)">
   <rect rx="4" y="1005.36" x="1" height="46" width="46" fill="#f8bd5a"/>
  </g>
 </g>
 <g>
  <rect transform="scale(1,-1)" width="46" height="46" x="1" y="-46.998" rx="4" opacity="0.1" fill="url(#1)"/>
 </g>
 <g>
  <g clip-path="url(#2)">
   <g opacity="0.1">
    <g>
     <path d="M 23.671875 8 C 16.09375 8 9.832031 14.140625 9.054688 22.074219 C 9.054688 22.097656 9.058594 22.125 9.054688 22.144531 C 9.054688 22.152344 9.058594 22.160156 9.054688 22.167969 C 9.054688 22.191406 9.058594 22.214844 9.054688 22.238281 C 8.972656 23.382812 8.992188 24.320312 9.054688 25.382812 C 12.019531 38.28125 20.886719 37.277344 20.886719 33.523438 L 16.875 26.601562 C 16.003906 26.015625 15.109375 27.019531 14.285156 27.566406 C 13.21875 28.269531 13.128906 28.375 12.519531 26.765625 C 11.800781 24.867188 11.4375 21.789062 12.519531 19.261719 C 14.765625 14.015625 18.980469 11.085938 23.671875 11.003906 C 23.90625 11.003906 24.136719 11.003906 24.371094 11.003906 C 29.046875 11.101562 33.242188 14.03125 35.480469 19.261719 C 36.5625 21.789062 36.199219 24.867188 35.480469 26.765625 C 34.871094 28.375 34.78125 28.269531 33.714844 27.566406 C 32.890625 27.019531 31.996094 26.015625 31.125 26.601562 L 27.113281 33.523438 C 27.113281 37.277344 35.980469 38.28125 38.945312 25.382812 C 39.007812 24.320312 39.027344 23.382812 38.945312 22.238281 C 38.941406 22.214844 38.945312 22.191406 38.945312 22.167969 C 38.941406 22.160156 38.945312 22.152344 38.945312 22.144531 C 38.941406 22.125 38.945312 22.097656 38.945312 22.074219 C 38.167969 14.140625 31.953125 8 24.371094 8 C 23.671875 8 24.371094 8 23.671875 8 Z M 23.671875 8 "/>
    </g>
   </g>
  </g>
 </g>
 <g>
  <g clip-path="url(#3)">
   <g transform="translate(0,-1)">
    <g>
     <path d="M 23.671875 8 C 16.09375 8 9.832031 14.140625 9.054688 22.074219 C 9.054688 22.097656 9.058594 22.125 9.054688 22.144531 C 9.054688 22.152344 9.058594 22.160156 9.054688 22.167969 C 9.054688 22.191406 9.058594 22.214844 9.054688 22.238281 C 8.972656 23.382812 8.992188 24.320312 9.054688 25.382812 C 12.019531 38.28125 20.886719 37.277344 20.886719 33.523438 L 16.875 26.601562 C 16.003906 26.015625 15.109375 27.019531 14.285156 27.566406 C 13.21875 28.269531 13.128906 28.375 12.519531 26.765625 C 11.800781 24.867188 11.4375 21.789062 12.519531 19.261719 C 14.765625 14.015625 18.980469 11.085938 23.671875 11.003906 C 23.90625 11.003906 24.136719 11.003906 24.371094 11.003906 C 29.046875 11.101562 33.242188 14.03125 35.480469 19.261719 C 36.5625 21.789062 36.199219 24.867188 35.480469 26.765625 C 34.871094 28.375 34.78125 28.269531 33.714844 27.566406 C 32.890625 27.019531 31.996094 26.015625 31.125 26.601562 L 27.113281 33.523438 C 27.113281 37.277344 35.980469 38.28125 38.945312 25.382812 C 39.007812 24.320312 39.027344 23.382812 38.945312 22.238281 C 38.941406 22.214844 38.945312 22.191406 38.945312 22.167969 C 38.941406 22.160156 38.945312 22.152344 38.945312 22.144531 C 38.941406 22.125 38.945312 22.097656 38.945312 22.074219 C 38.167969 14.140625 31.953125 8 24.371094 8 C 23.671875 8 24.371094 8 23.671875 8 Z M 23.671875 8 " fill="#eaeaea"/>
    </g>
   </g>
  </g>
 </g>
 <g>
  <g transform="translate(0,-1004.3622)">
   <path d="m 1,1043.3622 0,4 c 0,2.216 1.784,4 4,4 l 38,0 c 2.216,0 4,-1.784 4,-4 l 0,-4 c 0,2.216 -1.784,4 -4,4 l -38,0 c -2.216,0 -4,-1.784 -4,-4 z" opacity="0.1"/>
  </g>
 </g>
</svg>

<svg viewBox="0 0 48 48"><defs><linearGradient id="linearGradient3764" x1="1" x2="47" gradientUnits="userSpaceOnUse" gradientTransform="translate(-48.000001,0.00221467)"><stop stop-color="#f7b747" stop-opacity="1"/><stop offset="1" stop-color="#f8bd5a" stop-opacity="1"/></linearGradient><clipPath id="clipPath-912153145"><g transform="translate(0,-1004.3622)"><rect rx="4" y="1005.36" x="1" height="46" width="46" fill="#1890d0"/></g></clipPath><clipPath id="clipPath-925637851"><g transform="translate(0,-1004.3622)"><rect rx="4" y="1005.36" x="1" height="46" width="46" fill="#1890d0"/></g></clipPath></defs><g><path d="m 1 43 l 0 0.25 c 0 2.216 1.784 4 4 4 l 38 0 c 2.216 0 4 -1.784 4 -4 l 0 -0.25 c 0 2.216 -1.784 4 -4 4 l -38 0 c -2.216 0 -4 -1.784 -4 -4 z m 0 0.5 l 0 0.5 c 0 2.216 1.784 4 4 4 l 38 0 c 2.216 0 4 -1.784 4 -4 l 0 -0.5 c 0 2.216 -1.784 4 -4 4 l -38 0 c -2.216 0 -4 -1.784 -4 -4 z" opacity="0.02"/><path d="m 1 43.25 l 0 0.25 c 0 2.216 1.784 4 4 4 l 38 0 c 2.216 0 4 -1.784 4 -4 l 0 -0.25 c 0 2.216 -1.784 4 -4 4 l -38 0 c -2.216 0 -4 -1.784 -4 -4 z" opacity="0.05"/><path d="m 1 43 l 0 0.25 c 0 2.216 1.784 4 4 4 l 38 0 c 2.216 0 4 -1.784 4 -4 l 0 -0.25 c 0 2.216 -1.784 4 -4 4 l -38 0 c -2.216 0 -4 -1.784 -4 -4 z" opacity="0.1"/></g><g><rect width="46" height="46" x="-47" y="1" rx="4" transform="matrix(0,-1,1,0,0,0)" fill="url(#linearGradient3764)" fill-opacity="1"/></g><g><g clip-path="url(#clipPath-912153145)"><g opacity="0.1"><!-- color: #f8bd5a --><g><path d="m 23.672 8 c -7.578 0 -13.84 6.141 -14.617 14.07 c 0 0.023 0.004 0.051 0 0.07 c 0 0.008 0.004 0.016 0 0.023 c 0 0.023 0.004 0.047 0 0.07 c -0.082 1.145 -0.063 2.082 0 3.145 c 2.965 12.898 11.832 11.895 11.832 8.141 l -4.01 -6.922 c -0.871 -0.586 -1.766 0.418 -2.59 0.965 c -1.066 0.703 -1.156 0.809 -1.766 -0.801 c -0.719 -1.898 -1.082 -4.977 0 -7.504 c 2.246 -5.246 6.461 -8.176 11.152 -8.258 c 0.234 0 0.465 0 0.699 0 c 4.676 0.098 8.871 3.03 11.11 8.258 c 1.082 2.527 0.719 5.605 0 7.504 c -0.609 1.609 -0.699 1.504 -1.766 0.801 c -0.824 -0.547 -1.719 -1.551 -2.59 -0.965 l -4.01 6.922 c 0 3.754 8.867 4.758 11.832 -8.141 c 0.063 -1.063 0.082 -2 0 -3.145 c -0.004 -0.023 0 -0.047 0 -0.07 c -0.004 -0.008 0 -0.016 0 -0.023 c -0.004 -0.02 0 -0.047 0 -0.07 c -0.777 -7.934 -6.992 -14.07 -14.574 -14.07 c -0.699 0 0 0 -0.699 0 m 0 0" fill="#000"/></g></g></g></g><g><g clip-path="url(#clipPath-925637851)"><g transform="translate(0,-1)"><!-- color: #f8bd5a --><g><path d="m 23.672 8 c -7.578 0 -13.84 6.141 -14.617 14.07 c 0 0.023 0.004 0.051 0 0.07 c 0 0.008 0.004 0.016 0 0.023 c 0 0.023 0.004 0.047 0 0.07 c -0.082 1.145 -0.063 2.082 0 3.145 c 2.965 12.898 11.832 11.895 11.832 8.141 l -4.01 -6.922 c -0.871 -0.586 -1.766 0.418 -2.59 0.965 c -1.066 0.703 -1.156 0.809 -1.766 -0.801 c -0.719 -1.898 -1.082 -4.977 0 -7.504 c 2.246 -5.246 6.461 -8.176 11.152 -8.258 c 0.234 0 0.465 0 0.699 0 c 4.676 0.098 8.871 3.03 11.11 8.258 c 1.082 2.527 0.719 5.605 0 7.504 c -0.609 1.609 -0.699 1.504 -1.766 0.801 c -0.824 -0.547 -1.719 -1.551 -2.59 -0.965 l -4.01 6.922 c 0 3.754 8.867 4.758 11.832 -8.141 c 0.063 -1.063 0.082 -2 0 -3.145 c -0.004 -0.023 0 -0.047 0 -0.07 c -0.004 -0.008 0 -0.016 0 -0.023 c -0.004 -0.02 0 -0.047 0 -0.07 c -0.777 -7.934 -6.992 -14.07 -14.574 -14.07 c -0.699 0 0 0 -0.699 0 m 0 0" fill="#eaeaea"/></g></g></g></g><g><g transform="translate(0,-1004.3622)"><path d="m 1 1043.36 0 4 c 0 2.216 1.784 4 4 4 l 38 0 c 2.216 0 4 -1.784 4 -4 l 0 -4 c 0 2.216 -1.784 4 -4 4 l -38 0 c -2.216 0 -4 -1.784 -4 -4 z" opacity="0.1"/></g></g></svg>
